X:1
T:Title
%%score { ( 1 5 ) | ( 2 3 4 ) }
L:1/8
M:4/4
K:Bb
V:1 treble nm="Grand Piano"
V:5 treble 
V:2 bass 
V:3 bass 
V:4 bass 
V:1
 z4 z[Q:1/4=92] FGF | [B,D]3 F [DB]d[Ec]B | [FA]2 [EG]2- [EG]G[EG]B | [GB]3 A [FA]G[EG]^F | %4
 [DF]6 z2 | [B,D]3 F [DB]B[_Ad]c | [Gc]2 [GB]2- [GB]B[^Fc]B |[M:9/8] [Fd]3 [DB][CA]B d3/2c3/2 | %8
[M:5/8] [DB]-[DB]- [DB]3 |[M:3/8] BAB |[M:4/4] G6 z2 | F6 z2 | B3 B [=EB][DEB][CEA][B,EG] | %13
[M:9/8] c6 z3 |[M:4/4] B6 z2 |[M:17/16] G/-G/-G/-G/-G/-G/-G/-G-<G z/ z/ z/ z/ z | %16
[M:4/4] d2 z F c2 z d |[M:5/8] B-B- B3 |] %18
V:2
 z4 z D_D=D | z F, z D z F z D | z E, E,2 z E z G | z F, z F z E z E | z F,B,G, B,,D_D=D | %5
 z F, z D z[K:treble] D z _A | z B, B,2 z[K:treble] G z ^F | %7
[M:9/8][K:bass] z B,B,- B, z D F3/2E3/2 |[M:5/8] [B,,F,]-[B,,F,]- [B,,F,]3 |[M:3/8] z3 | %10
[M:4/4] z [E,B,][E,B,][E,B,] .[E,B,]2 z2 | z [B,,B,][B,,B,][B,,B,] B,[B,D][B,D][A,CE] | %12
 [G,B,D]3 [G,B,D] [C,G,]C,C,C, | %13
[M:9/8] [F,A,E][F,A,][^F,B,] [F,B,][=F,A,]>[F,A,F]- [F,A,F]<[F,A,][F,A,] | %14
[M:4/4] [B,,B,][B,,F,][B,,A,][B,,G,] [B,,F,][B,,F,][C,F,][D,B,] | %15
[M:17/16] [E,B,E][E,B,][E,B,][E,B,][E,B,]3/2[E,B,][E,B,][E,B,] | %16
[M:4/4] [F,B,F]2 z [F,B,D] [F,A,E]2 z [F,A,F] |[M:5/8] z2 G,2 F, |] %18
V:3
 x8 | z2 F,2 F,2 F,2 | z4 E,2 E,2 | z2 F,2 F,2 F,2 | B,,4 z4 | z2 F,2 F,2[K:treble] B,2 | %6
 z4 B,2[K:treble] B,2 |[M:9/8][K:bass] F,3- F, [F,,F,]2- [F,,F,]2- [F,,F,]/ z/ |[M:5/8] x5 | %9
[M:3/8] x3 |[M:4/4] x8 | x8 | x8 |[M:9/8] x9 |[M:4/4] x8 |[M:17/16] x17/2 |[M:4/4] x8 | %17
[M:5/8] B,,-B,,- B,,3 |] %18
V:4
 x8 | B,,8 | E,,8 | F,,8 | x8 | B,,8[K:treble] | E,8[K:treble] |[M:9/8][K:bass] x9 |[M:5/8] x5 | %9
[M:3/8] x3 |[M:4/4] x8 | x8 | x8 |[M:9/8] x9 |[M:4/4] x8 |[M:17/16] x17/2 |[M:4/4] x8 | %17
[M:5/8] x5 |] %18
V:5
 x8 | x8 | x8 | x8 | z4 F,FGF | x8 | x8 |[M:9/8] x9 |[M:5/8] x5 |[M:3/8] x3 |[M:4/4] z EEE EBcB | %11
 z DDD DFFF | x8 |[M:9/8] z EE EE>d- d<[Ge][Fd] |[M:4/4] DDFE D[DB][EA][FB] | %15
[M:17/16] z EEEE3/2[GB][^Fc][FB] |[M:4/4] x8 |[M:5/8] [B,D]2 E2 D |] %18

